!!!COM:	la Rue, Pierre de
!!!CDT:	~1452///-1518/11/20
!!!OTL:	Gaude virgo mater Christi
!!!AGN:	Motet
!!!SCT:	Rue2005
!!!SCA:	Rue2005
!!!voices:	4
**kern	**kern	**kern	**kern
*staff4	*staff3	*staff2	*staff1
*Ivox	*Ivox	*Ivox	*Ivox
*I"Bassus	*I"Tenor	*I"Contra	*I"Discantus
*I'B	*I'T	*I'C	*I'D
*>[A,B]	*>[A,B]	*>[A,B]	*>[A,B]
*>A	*>A	*>A	*>A
*clefF4	*clefGv2	*clefGv2	*clefG2
*k[]	*k[]	*k[]	*k[]
*M3/1	*M3/1	*M3/1	*M3/1
*met(O)	*met(O)	*met(O)	*met(O)
!!section: Gaude virgo
!!!OMD: Gaude virgo
=1-	=1-	=1-	=1-
0E	0.r	1e	0.r
.	.	2e\	.
.	.	1e	.
1E	.	.	.
.	.	2e\	.
=2	=2	=2	=2
1D	0.r	1f	1a
2D\	.	0f	2a/
1F	.	.	1a
2F\	.	.	2a/
=3	=3	=3	=3
1G	0.r	1d	1b
0E	.	2.e\	0b
.	.	4f\	.
.	.	4g\	.
.	.	4e\	.
.	.	[2g\	.
=4	=4	=4	=4
1G	0.r	4g\]	1g
.	.	4f\	.
.	.	4d\	.
.	.	4e\	.
2D\	.	2f\	2.a/
2.A\	.	1e	.
.	.	.	4b\
.	.	.	2cc\
4B\	.	.	.
4c\	.	2e\	[2cc\
4A\	.	.	.
=5	=5	=5	=5
2.c\	0.r	2A/	4cc\]
.	.	.	4b\
.	.	1e	4g/
4B\	.	.	4a/
2G\	.	.	2b\
2F\	.	2f\	2a/
2c\	.	2e\	2ee\
[2d\	.	2d\	[2ff\
=6	=6	=6	=6
4d\]	0.r	2f\	4ff\]
4c\	.	.	4ee\
4B\	.	2.g\	4dd\
4A\	.	.	4cc\
2G\	.	.	4b\
.	.	4f\	4a/
2A\	.	1e	1a
1B	.	.	.
.	.	2d\	2g#i/
=7	=7	=7	=7
0A	0c	1e	0a
.	.	2r	.
.	.	2e\	.
1r	1c	2g\	1r
.	.	[2a\	.
=8	=8	=8	=8
1A	0c	2a\]	1ee
.	.	1a	.
2A\	.	.	2ee\
1F	.	2a\	1ff
.	1c	2.a\	.
2F\	.	.	2ff\
.	.	4d\	.
=9	=9	=9	=9
2G\	0B	2d\	2dd\
2G\	.	1g	2dd\
0E	.	.	2ee\
.	.	1g	4dd\
.	.	.	4cc\
.	1B	.	1b
.	.	2g\	.
=10	=10	=10	=10
2.A\	2.c\	2a\	1a
.	.	2e\	.
4G\	4B\	.	.
2F\	2c\	2.f\	2r
2D\	1d	.	1a
.	.	4g\	.
1A	.	1e	.
.	2c#i\	.	2a/
=11	=11	=11	=11
2r	1d	1d	2b\
2D\	.	.	1a
1D	2r	2r	.
.	2d\	2a\	1dd
1D	2d\	2a\	.
.	2d\	2a\	4cc\
.	.	.	4b\
=12	=12	=12	=12
1.A	0e	1a	1cc
.	.	2e\	2a/
4G\	.	2.a\	2.cc\
4F\	.	.	.
1E	1c	.	.
.	.	2.g\	4dd\
.	.	.	2ee\
=13	=13	=13	=13
0D	0d	1.f	0ff
.	.	4e\	.
.	.	4d\	.
1D	1f	1a	1dd
=14	=14	=14	=14
2A\	2e\	0.r	2.ee\
2E\	2.g\	.	.
.	.	.	4dd\
2.G\	.	.	4b\
.	4f\	.	4cc\
.	4d\	.	2.dd\
4F\	4e\	.	.
2D\	1f	.	.
.	.	.	4cc\
[2A\	.	.	2a/
=15	=15	=15	=15
2A\]	2e\	1a	2ee\
1D	2d\	.	2.ff\
.	1f	2a\	.
.	.	.	4ee\
2.A\	.	2.a\	4cc\
.	.	.	4dd\
.	2.e\	.	2ee\
4B\	.	4g\	.
2c\	.	2e\	2cc\
.	4d\	.	.
=16	=16	=16	=16
1.G	4B\	2d\	2.dd\
.	4c\	.	.
.	2.d\	2.g\	.
.	.	.	4cc\
.	.	.	4b\
.	4c\	4f\	4a/
2A\	4B\	4e\	1a
.	4A/	4d\	.
1E	1B	1e	.
.	.	.	2g#i/
=17	=17	=17	=17
0.A	1A	0.e	0.a
.	2r	.	.
.	2.A/	.	.
.	4B\	.	.
.	4c\	.	.
.	4d\	.	.
=18	=18	=18	=18
2r	2e\	0.r	0.r
2.D\	2f\	.	.
.	1d	.	.
4E\	.	.	.
4F\	.	.	.
4G\	.	.	.
2A\	2c\	.	.
2B\	[2d\	.	.
=19	=19	=19	=19
1G	4d\]	0.r	0.r
.	4c\	.	.
.	2B\	.	.
2F\	2A/	.	.
4G\	2d\	.	.
4F\	.	.	.
2E\	2c\	.	.
[2D\	[2f\	.	.
=20	=20	=20	=20
2D\]	2f\]	0.r	0.r
2A\	2e\	.	.
2B-i\	2d\	.	.
4B-i\	4g\	.	.
4A\	4f\	.	.
4G\	4e\	.	.
4F\	4d\	.	.
4c\	[2e\	.	.
4B-\	.	.	.
=21	=21	=21	=21
4A\	2e\]	0.r	0.r
4G\	.	.	.
2A\	4e\	.	.
.	4d\	.	.
4A\	4c\	.	.
4G\	4B\	.	.
4F\	1e	.	.
4E\	.	.	.
1F	.	.	.
.	2d\	.	.
=22	=22	=22	=22
0.E	0.e	0.r	2.g/
.	.	.	4a/
.	.	.	4b\
.	.	.	4cc\
.	.	.	1b
.	.	.	2g/
=23	=23	=23	=23
0.r	0.r	2.c\	2a/
.	.	.	2.g/
.	.	4d\	.
.	.	4e\	.
.	.	4f\	4a/
.	.	1e	4b\
.	.	.	4cc\
.	.	.	2b\
.	.	4c\	[2a/
.	.	4d\	.
=24	=24	=24	=24
0.r	0.r	4e\	2a/]
.	.	4f\	.
.	.	1e	2g/
.	.	.	1f
.	.	2d\	.
.	.	1e	1e
=25	=25	=25	=25
2.E\	0e	0.r	0.r
4F\	.	.	.
2G\	.	.	.
2.A\	.	.	.
.	1e	.	.
4G\	.	.	.
4F\	.	.	.
4E\	.	.	.
=26	=26	=26	=26
1D	0f	0.r	2.a/
.	.	.	4b\
1r	.	.	2cc\
.	.	.	2.dd\
1D	1f	.	.
.	.	.	4cc\
.	.	.	4b\
.	.	.	4a/
=27	=27	=27	=27
2.E\	0e	1B	2.g/
4F\	.	.	4a/
2G\	.	2B\	2b\
2.A\	.	1A	2.cc\
.	1c	.	.
4G\	.	.	4b\
4F\	.	[2a\	4a/
4E\	.	.	4g/
=28	=28	=28	=28
1D	2.d\	4a\]	4f/
.	.	4g\	4d/
.	.	4f\	2.f/
.	4A/	4e\	.
1r	2d\	4d\	.
.	.	4c\	4g/
.	2e\	1c	2e/
1r	1f	.	1d
.	.	2B\	.
=29	=29	=29	=29
0A	0e	1c	0c
.	.	1r	.
1B	1d	1G	1g
=30	=30	=30	=30
2A\	1e	2.c\	2a/
1A	.	.	1cc
.	.	4d\	.
.	2A/	2e\	.
4G\	1d	1A	2dd\
4F\	.	.	.
1E	.	.	1ee
.	2c#i\	2G/	.
=31	=31	=31	=31
1.D	2.d\	1A	2a/
.	.	.	4ff\
.	4e\	.	4ee\
.	4f\	1.a	4dd\
.	4e\	.	4cc\
1F	4d\	.	1cc
.	4c\	.	.
.	1d	.	.
2G\	.	2g\	2b\
=32	=32	=32	=32
1A	1c	2e\	1cc
.	.	2f\	.
2G\	2B\	2g\	2r
2F\	1A	2.a\	1cc
1E	.	.	.
.	.	4g\	.
.	2G/	2e\	2cc\
=33	=33	=33	=33
0D	0.A	0f	1dd
.	.	.	0ff
1F	.	1a	.
=34	=34	=34	=34
2C/	0.r	2g\	2ee\
2G\	.	2.b\	4dd\
.	.	.	4cc\
1A	.	.	4dd\
.	.	4a\	4cc\
.	.	1a	4b\
.	.	.	4a/
1E	.	.	1b
.	.	2g#i\	.
=35	=35	=35	=35
1A	2r	0a	0.a
.	1c	.	.
2r	.	.	.
1F	2c\	.	.
.	2d\	1r	.
[2F\	[2f\	.	.
=36	=36	=36	=36
2F\]	2f\]	0.r	0.r
2.G\	1e	.	.
4F\	.	.	.
4E\	2d\	.	.
4D\	.	.	.
1E	2.d\	.	.
.	4c#i\	.	.
=37	=37	=37	=37
0.D	0.d	1r	2r
.	.	.	1a
.	.	2r	.
.	.	2f\	4b-i\
.	.	.	4cc\
.	.	2f\	4dd\
.	.	.	4ee\
.	.	4d\	[2ff\
.	.	4e\	.
=38	=38	=38	=38
0.r	0.r	4f\	2ff\]
.	.	4d\	.
.	.	2.g\	1ee
.	.	4f\	.
.	.	4e\	2dd\
.	.	4d\	.
.	.	1e	2.dd\
.	.	.	4cc#i\
=39	=39	=39	=39
0.r	1f	0.d	0.dd
.	2f\	.	.
.	1d	.	.
.	2f\	.	.
=40	=40	=40	=40
1c	2e\	0.r	0.r
.	2e\	.	.
2c\	1A	.	.
1A	.	.	.
.	2r	.	.
2c\	2A/	.	.
=41	=41	=41	=41
2B\	2d\	0.r	0.r
2B\	2d\	.	.
1E	2e\	.	.
.	2.g\	.	.
2r	.	.	.
.	4f\	.	.
2G\	4e\	.	.
.	4d\	.	.
=42	=42	=42	=42
2A\	1c	0.r	0.r
2.c\	.	.	.
.	2r	.	.
4B\	.	.	.
4A\	2c\	.	.
4G\	.	.	.
2.F\	2d\	.	.
.	[2f\	.	.
4G\	.	.	.
=43	=43	=43	=43
4A\	2f\]	0.r	0.r
4B\	.	.	.
2.c\	1e	.	.
4B\	.	.	.
1A	4d\	.	.
.	4c\	.	.
.	1B	.	.
2G#i\	.	.	.
=44	=44	=44	=44
0A	0.A	1a	2.cc\
.	.	.	8dd\L
.	.	.	8ee\J
.	.	4a\	2ff\
.	.	4g\	.
.	.	4f\	1ee
.	.	4e\	.
1D	.	1f	.
.	.	.	2dd\
=45	=45	=45	=45
2.A\	0.r	2.e\	1ee
4B\	.	8f\L	.
.	.	8g\J	.
4c\	.	2a\	4ee\
4B\	.	.	4dd\
4A\	.	1g	4cc\
4G\	.	.	4b\
1A	.	.	1cc
.	.	2f#i\	.
=46	=46	=46	=46
0G	0.r	1g	2.b\
.	.	.	8cc\L
.	.	.	8dd\J
.	.	4g\	2ee\
.	.	4f\	.
.	.	4e\	1dd
.	.	4d\	.
1r	.	1e	.
.	.	.	2cc#i\
=47	=47	=47	=47
2.G\	0.r	2.d\	1dd
4A\	.	8e\L	.
.	.	8f\J	.
4B\	.	2g\	4dd\
4A\	.	.	4cc\
4G\	.	1f	4b\
4F\	.	.	4a/
1G	.	.	1b
.	.	2e\	.
=48	=48	=48	=48
2.F\	1c	2f\	0a
.	.	2.f\	.
4G\	.	.	.
4A\	1c	.	.
4G\	.	4e\	.
4F\	.	4d\	.
4E\	.	4c\	.
1D	1d	2.B\	1r
.	.	4A/	.
=49	=49	=49	=49
0C	0e	0c	1cc
.	.	.	1cc
1r	1f	1r	1dd
=50	=50	=50	=50
1C	1e	2.c\	1ee
.	.	4d\	.
2C/	2e\	2e\	2ee\
1D	1f	2.d\	2.a/
.	.	4c\	4b\
2D\	2f\	4A/	4cc\
.	.	4B\	4dd\
=51	=51	=51	=51
2C/	2e\	2c\	2ee\
1D	2d\	2A/	1ff
.	1e	2B\	.
2C/	.	2c\	1ee
1D	1f	1A	.
.	.	.	2dd\
=52	=52	=52	=52
2r	2e\	0.r	0ee
1A	2e\	.	.
.	2e\	.	.
2A\	2.A/	.	.
2.c\	.	.	1r
.	4B\	.	.
.	4c\	.	.
4B\	4d\	.	.
=53	=53	=53	=53
4A\	2e\	1r	0.r
4G\	.	.	.
4F\	1f	.	.
4D\	.	.	.
2A\	.	1r	.
2G\	1e	.	.
2F\	.	1a	.
2F\	2d\	.	.
=54	=54	=54	=54
0E	0e	2g\	1.ee
.	.	4e\	.
.	.	4f\	.
.	.	4g\	.
.	.	4e\	.
.	.	1a	4dd\
.	.	.	4cc\
1E	1r	.	1b
.	.	2g#i\	.
=55	=55	=55	=55
1A	1e	1a	2a/
.	.	.	2cc\
2A\	0e	2a\	2cc\
1E	.	1g	1b
2A\	.	2a\	2a/
=56	=56	=56	=56
2D\	1f	0a	1a
1d	.	.	.
.	1f	.	2r
2d\	.	.	2a/
2.c\	1e	2r	2.ee\
.	.	[2a\	.
4B\	.	.	4dd\
=57	=57	=57	=57
2A\	2e\	2a\]	2cc\
2B\	1d	1g	2dd\
2G\	.	.	2b\
2A\	2c\	2e\	2a/
2D\	2d\	2f\	2r
2d\	[2f\	2d\	2a/
=58	=58	=58	=58
2.c\	4f\]	2r	2.ee\
.	4e\	.	.
.	1e	1a	.
4B\	.	.	4dd\
2A\	.	.	2cc\
2B\	1d	1g	2dd\
2G\	.	.	2b\
2A\	2c\	2e\	2a/
=59	=59	=59	=59
2r	2d\	2f\	2r
1A	1e	1c	1a
2A\	2e\	2c\	2a/
1A	1e	1c	1a
=60	=60	=60	=60
0A	0.e	2.c\	2a/
.	.	.	2.cc\
.	.	4B\	.
.	.	2A/	.
.	.	.	4a/
.	.	2a\	2cc\
2E\	.	2g\	2b\
2A\	.	[2a\	[2a/
=61	=61	=61	=61
2D\	2r	2a\]	2a/]
2A\	2.e\	2a\	2a/
2r	.	2g\	2b\
.	4B\	.	.
1A	2.e\	2a\	2.cc\
.	.	2.e\	.
.	4f\	.	4dd\
[2E\	4g\	.	4ee\
.	4a\	4e\	4ff\
=62	=62	=62	=62
2E\]	2.g\	2.B\	2ee\
2.G\	.	.	2.dd\
.	4d\	4c\	.
.	2.g\	1d	.
4A\	.	.	4g/
2B\	.	.	2.dd\
.	4d\	.	.
1G	2.g\	2r	.
.	.	.	4g/
.	.	2g\	4dd\
.	4f\	.	4g/
=63	=63	=63	=63
2A\	4e\	2c\	2cc\
.	4c\	.	.
2.G\	2.d\	2.g\	1b
4A\	4c\	4f\	.
2F\	2A/	2d\	1a
1E	1B	1e	.
.	.	.	2g#i/
=64	=64	=64	=64
*^	*	*	*
0.AAl\	0.Al/	0.Al	0.el	0.al
*v	*v	*	*	*
!!LO:LB:i:g=z
=65||	=65||	=65||	=65||
*>B	*>B	*>B	*>B
*clefF4	*clefGv2	*clefGv2	*clefG2
*k[]	*k[]	*k[]	*k[]
*M2/1	*M2/1	*M2/1	*M2/1
*met(C|)	*met(C|)	*met(C|)	*met(C|)
!!section: Gaude sponsa
!!!OMD: Gaude sponsa
1A	0r	0r	0r
1A	.	.	.
=66	=66	=66	=66
1G	1e	0r	0r
1E	1e	.	.
=67	=67	=67	=67
1G	1d	0r	0r
1G	1B	.	.
=68	=68	=68	=68
1F	1d	0r	0r
1D	1d	.	.
=69	=69	=69	=69
1A	1c	0r	1cc
1A	1A	.	1cc
=70	=70	=70	=70
1G	0r	1e	1b
1E	.	1e	1g
=71	=71	=71	=71
1G	0r	1d	1b
1G	.	1B	1b
=72	=72	=72	=72
1F	0r	1d	1a
1D	.	1d	1f
=73	=73	=73	=73
2r	1e	1c	0e
2A\	.	.	.
2G\	1e	[1B	.
2E\	.	.	.
=74	=74	=74	=74
0G	1d	2B\]	1r
.	.	4A/	.
.	.	4G/	.
.	1B	[1d	2r
.	.	.	2g/
=75	=75	=75	=75
0D	1d	1d]	2f/
.	.	.	2d/
.	1d	[1A	1f
=76	=76	=76	=76
1r	1c	1A]	0e
2r	1A	[1e	.
2A\	.	.	.
=77	=77	=77	=77
2G\	0B	1e]	2r
2E\	.	.	2ee\
[1G	.	1B	2dd\
.	.	.	2b\
=78	=78	=78	=78
0G]	2r	0g	4dd\
.	.	.	4cc\
.	2e\	.	4b\
.	.	.	4a/
.	2d\	.	1b
.	2B\	.	.
=79	=79	=79	=79
1D	1d	1f	1a
2r	1A	2e\	2r
2A\	.	2c\	2cc\
=80	=80	=80	=80
2G\	2r	1g	2b\
2E\	2e\	.	2g/
[1G	2d\	2r	2b\
.	2B\	[2g\	2ee\
=81	=81	=81	=81
1G]	0d	2g\]	2dd\
.	.	2g\	2b\
2F\	.	2a\	2dd\
2D\	.	2f\	4cc\
.	.	.	[4b\
=82	=82	=82	=82
0E	2c\	0e	4b\]
.	.	.	4a/
.	2A/	.	1a
.	1B	.	.
.	.	.	2g#i/
=83	=83	=83	=83
2r	0A	2r	0a
1A	.	1f	.
[2A\	.	4e\	.
.	.	4d\	.
=84	=84	=84	=84
2A\]	0r	2e\	1r
1B	.	1d	.
.	.	.	2r
[2A\	.	[2c\	[2ee\
=85	=85	=85	=85
2A\]	0r	4c\]	2ee\]
.	.	4d\	.
4G\	.	4e\	1ee
4F\	.	4f\	.
2E\	.	2g\	.
2D\	.	2a\	[2ff\
=86	=86	=86	=86
2d\	0r	2d\	2ff\]
2c\	.	1a	1ee
4A\	.	.	.
4B\	.	.	.
4c\	.	2a\	4dd\
4d\	.	.	4cc\
=87	=87	=87	=87
2e\	0r	2g\	2b\
2A\	.	1a	2a/
2r	.	.	2.cc\
[2A\	.	[2a\	.
.	.	.	4dd\
=88	=88	=88	=88
2A\]	0r	2a\]	4ee\
.	.	.	4ff\
1G	.	1b	2.gg\
.	.	.	4ff\
[2c\	.	2g\	4ee\
.	.	.	4dd\
=89	=89	=89	=89
4c\]	0r	2a\	2cc\
4B\	.	.	.
4A\	.	2f\	1dd
4G\	.	.	.
1A	.	1e	.
.	.	.	2cc#i\
=90	=90	=90	=90
0D	0r	0d	0dd
=91	=91	=91	=91
2r	0e	0r	0r
1A	.	.	.
2G\	.	.	.
=92	=92	=92	=92
2A\	1e	1r	0r
1c	.	.	.
.	1e	2r	.
4B\	.	[2a\	.
4A\	.	.	.
=93	=93	=93	=93
1B	1d	2a\]	0r
.	.	2g\	.
1A	[1e	1a	.
=94	=94	=94	=94
1c	2e\]	1e	0r
.	2e\	.	.
2.G\	1B	1g	.
4F\	.	.	.
=95	=95	=95	=95
2D\	1d	2f\	0r
2.A\	.	1e	.
.	2c\	.	.
4G\	.	.	.
2G\	[2B\	2d\	.
=96	=96	=96	=96
1A	2B\]	1c	0r
.	1A	.	.
1E	.	1B	.
.	2G#i/	.	.
=97	=97	=97	=97
1r	0A	2r	0r
.	.	2A/	.
[1A	.	2c\	.
.	.	4d\	.
.	.	4e\	.
=98	=98	=98	=98
1A]	1c	2f\	0r
.	.	1e	.
1A	1c	.	.
.	.	[2a\	.
=99	=99	=99	=99
1B	1d	4a\]	0r
.	.	4g\	.
.	.	2g\	.
1A	[1e	2a\	.
.	.	2e\	.
=100	=100	=100	=100
1G	1e]	1g	0r
2F\	2f\	2a\	.
2C/	[2e\	[2g\	.
=101	=101	=101	=101
2E\	4e\]	4g\]	0r
.	4d\	4f\	.
2F\	1d	4e\	.
.	.	4d\	.
2G\	.	1e	.
2A\	2c#i\	.	.
=102	=102	=102	=102
[0D	[0d	0d	0dd
=103	=103	=103	=103
0D]	0d]	0r	1ff
.	.	.	1ff
=104	=104	=104	=104
0r	0r	0a	1ee
.	.	.	1cc
=105	=105	=105	=105
0r	0r	1f	1dd
.	.	1g	1ee
=106	=106	=106	=106
0r	0r	1a	0a
.	.	1f	.
=107	=107	=107	=107
0r	0r	1g	1r
.	.	1a	1cc
=108	=108	=108	=108
0r	0r	0d	1.dd
.	.	.	4cc\
.	.	.	4b\
=109	=109	=109	=109
0r	0r	1r	2a/
.	.	.	2.dd\
.	.	1f	.
.	.	.	4cc\
.	.	.	4b\
.	.	.	4a/
=110	=110	=110	=110
0r	0r	1.g	1g
.	.	.	1dd
.	.	4f\	.
.	.	4e\	.
=111	=111	=111	=111
0r	0r	2d\	1dd
.	.	2.g\	.
.	.	.	2dd\
.	.	4f\	.
.	.	4e\	[2ee\
.	.	4d\	.
=112	=112	=112	=112
0r	0r	2c\	4ee\]
.	.	.	4dd\
.	.	2e\	1cc
.	.	1d	.
.	.	.	2b\
=113	=113	=113	=113
1A	1e	0c	0cc
1A	1e	.	.
=114	=114	=114	=114
2G\	2.e\	0r	0r
2.A\	.	.	.
.	4d\	.	.
.	4c\	.	.
4G\	4B\	.	.
4F\	[2d\	.	.
4E\	.	.	.
=115	=115	=115	=115
2G\	2d\]	0r	0r
2C/	1c	.	.
1D	.	.	.
.	2B\	.	.
=116	=116	=116	=116
2C/	0c	0r	1r
1F	.	.	.
.	.	.	1cc
2E\	.	.	.
=117	=117	=117	=117
1D	1r	0r	1dd
1C	1c	.	1ee
=118	=118	=118	=118
1F	1d	0r	2a/
.	.	.	2dd\
1E	1e	.	2cc\
.	.	.	[2b\
=119	=119	=119	=119
1F	1A	0r	4b\]
.	.	.	4a/
.	.	.	1a
1E	1B	.	.
.	.	.	2g#i/
=120	=120	=120	=120
0r	0A	0r	0a
=121	=121	=121	=121
0A	0e	0a	0cc
=122	=122	=122	=122
1A	1e	1a	1cc
1A	1e	[1a	1cc
=123	=123	=123	=123
1D	1d	1a]	1.dd
1G	1B	2.g\	.
.	.	.	4cc\
.	.	4f\	4b\
=124	=124	=124	=124
2A\	2r	2e\	2cc\
2B\	1d	2d\	2dd\
1G	.	1g	2b\
.	2B\	.	[2ee\
=125	=125	=125	=125
2A\	2c\	2r	2ee\]
2B\	2d\	1G	1dd
1G	2B\	.	.
.	[2e\	2B\	2b\
=126	=126	=126	=126
2A\	4e\]	2A/	2cc\
.	4d\	.	.
2B\	2d\	2G/	2dd\
2E\	1e	2B\	2b\
2C/	.	2c\	[2ee\
=127	=127	=127	=127
1D	1f	[0A	2ee\]
.	.	.	2dd\
2r	2e\	.	2ee\
[2D\	2d\	.	[2ff\
=128	=128	=128	=128
2D\]	1e	0A]	2ff\]
2C/	.	.	2.ee\
1D	1f	.	.
.	.	.	4dd\
.	.	.	2dd\
=129	=129	=129	=129
0A	0e	1r	1ee
.	.	1a	1r
=130	=130	=130	=130
0E	0e	1g	0ee
.	.	1g	.
=131	=131	=131	=131
1A	1e	0a	1cc
1A	1e	.	1cc
=132	=132	=132	=132
0F	1A	1a	1ff
.	1A	1a	1ff
=133	=133	=133	=133
0C	2.c\	1g	0ee
.	4B\	.	.
.	2G/	2g\	.
.	[2c\	[2a\	.
=134	=134	=134	=134
1F	2c\]	4a\]	2cc\
.	.	4g\	.
.	1c	1f	2a/
1G	.	.	1b
.	2B\	2e\	.
=135	=135	=135	=135
1.F	0c	0f	0a
4E\	.	.	.
4D\	.	.	.
=136	=136	=136	=136
[0D	0f	0a	0dd
=137	=137	=137	=137
0D]	1f	1a	1dd
.	1f	1a	1dd
=138	=138	=138	=138
1A	1e	0a	1cc
2F\	2.f\	.	2a/
2D\	.	.	4dd\
.	4e\	.	4cc\
=139	=139	=139	=139
2G\	2d\	2g\	4b\
.	.	.	4a/
2A\	2c\	2.e\	1a
1E	1B	.	.
.	.	4d\	.
.	.	2e\	2g#i/
=140	=140	=140	=140
0F	[0A	2c\	1a
.	.	2.d\	.
.	.	.	1r
.	.	4c\	.
.	.	2c\	.
=141	=141	=141	=141
0D	0A]	0d	1f
.	.	.	1f
=142	=142	=142	=142
2r	0r	0r	2e/
2D\	.	.	2f/
2C/	.	.	2e/
[2D\	.	.	[2f/
=143	=143	=143	=143
2D\]	0A	0a	2f/]
2D\	.	.	4e/
.	.	.	4d/
2C/	.	.	2e/
[2D\	.	.	[2f/
=144	=144	=144	=144
2D\]	1A	1a	2f/]
2E\	.	.	1e
1F	1A	1a	.
.	.	.	2d/
=145	=145	=145	=145
0E	0B	[0g	0e
=146	=146	=146	=146
1E	0B	0g]	0ee
1E	.	.	.
=147	=147	=147	=147
0C	1c	1.g	1ee
.	1c	.	1ee
.	.	2g\	.
=148	=148	=148	=148
1G	2B\	2.g\	1dd
.	1B	.	.
.	.	4f\	.
1A	.	4e\	1cc
.	.	4d\	.
.	2A/	[2f\	.
=149	=149	=149	=149
1E	2B\	2f\]	1b
.	2G/	1e	.
1F	1A	.	1a
.	.	2d\	.
=150	=150	=150	=150
*M3/1	*M3/1	*M3/1	*M3/1
*met(3)	*met(3)	*met(3)	*met(3)
1F	1c	1.f	1a
1D	1d	.	1dd
.	.	2e\	.
1A	1e	1e	1cc
=151	=151	=151	=151
1F	2.f\	0a	1ff
.	4e\	.	.
1c	2c\	.	2.ee\
.	1e	.	.
.	.	.	4cc\
1B	.	1g#i	1dd
.	2d\	.	.
=152	=152	=152	=152
0A	0e	0a	0cc
1r	1r	1r	1r
=153	=153	=153	=153
1.F	0f	0a	0cc
2G\	.	.	.
1A	1e	1a	1cc
=154	=154	=154	=154
0D	1d	1.f	1dd
.	0f	.	1a
.	.	2e\	.
[1F	.	1d	1r
=155	=155	=155	=155
2F\]	1f	0c	1cc
2G\	.	.	.
1A	1e	.	1cc
1D	1d	[1f	1dd
=156	=156	=156	=156
1.F	1.c	2f\]	1a
.	.	2g\	.
.	.	0a	0cc
2G\	2B\	.	.
1A	2c\	.	.
.	2d\	.	.
=157	=157	=157	=157
0E	1e	1g	1b
.	1B	1e	0ee
1E	1e	1g	.
=158	=158	=158	=158
1F	1A	1a	1dd
1E	1e	1g	2cc\
.	.	.	1b
1F	1c	1a	.
.	.	.	2a/
=159	=159	=159	=159
1D	1d	1f	0a
0E	0B	0e	.
.	.	.	1g#i
=160	=160	=160	=160
0F	1.A	1.c	2a/
.	.	.	1cc
.	2B\	2B\	2dd\
1E	1c	1G	1ee
=161	=161	=161	=161
1D	1d	1A	1ff
1A	1c	1c	1.ee
1B	1f	1d	.
.	.	.	2dd\
=162	=162	=162	=162
1G	1g	1B	0dd
0A	0e	0A	.
.	.	.	1cc#i
=163	=163	=163	=163
*	*	*^	*
0.Dl	0.dl	0.Al\	0.al/	0.ddl
*	*	*v	*v	*
==	==	==	==
*-	*-	*-	*-
!!!RDF**kern: l=long note in original notation
!!!RDF**kern: i=editorial accidental
!!!ENC:	Jesse Rodin; Chris Gage 01-02-2013
!!!END:	2013/05/17/
!!!EED:	Jesse Rodin
!!!EEV:	2013/07/20/
!!!ONB:	Translated from MusicXML and edited on 2013/07/20/ by Craig Sapp
!!muse2ps: C^@{COM}^i2I150v85,85,85,100Q16
